icons/text-dashed-underline-24.svg

<svg id="icons" xmlns="http://www.w3.org/2000/svg" viewBox="0 0 24 24"><defs><style>.cls-1{fill:none;}</style></defs><path d="M11,22h2v1H11ZM5,23H7V22H5Zm9,0h2V22H14ZM8,23h2V22H8Zm12-1v1h2V22Zm-3,1h2V22H17ZM2,23H4V22H2Zm16.062-4h1.0896L12.45947,4h-.91894L4.84845,19H5.93811l2.23914-5h7.64556ZM8.62506,13,12,5.46362,15.375,13Z"/><rect class="cls-1" width="24" height="24"/></svg>

<svg xmlns="http://www.w3.org/2000/svg" viewBox="0 0 24 24"><path d="M11 22h2v1h-2zm-6 1h2v-1H5zm9 0h2v-1h-2zm-6 0h2v-1H8zm12-1v1h2v-1zm-3 1h2v-1h-2zM2 23h2v-1H2zm16.062-4h1.09L12.459 4h-.918L4.848 19h1.09l2.24-5h7.645zm-9.437-6L12 5.464 15.375 13z"/><path fill="none" d="M0 0h24v24H0z"/></svg>
